assets/images/icons/github.svg

<svg viewBox="0 0 512 512" xmlns="http://www.w3.org/2000/svg"><path d="m256 0c-140.699219 0-256 116.300781-256 257 0 139.882812 114.25 255 256 255 141.574219 0 256-114.945312 256-255 0-140.699219-115.300781-257-256-257zm45 477.5c-14.398438 3-29.699219 4.5-45 4.5s-30.601562-1.5-45-4.5v-70.199219c0-16.800781 4.5-22.800781 10.5-30.902343 3.054688-3.492188 4.898438-6.625 18.597656-27.296876l-23.097656-3.601562c-59.402344-8.699219-82.800781-39.601562-92.101562-63.601562-12-32.097657-5.699219-72.300782 15.902343-97.796876 3.300781-3.902343 6-10.503906 3.601563-17.402343-4.503906-13.800781-3.902344-35.699219-.902344-44.101563 15.90625 2.273438 32.261719 13.667969 45.902344 21.902344 6.285156 3.667969 9.582031 2.699219 12.597656 3 10.960938-2.28125 28.058594-7.800781 54.300781-7.800781 16.199219 0 33.300781 2.398437 50.101563 7.199219 3.003906-.070313 7.832031 2.484374 16.199218-2.398438 14.257813-8.6875 30.058594-19.691406 45.898438-21.902344 3 8.402344 3.601562 30.300782-.898438 44.101563-2.402343 6.898437.296876 13.5 3.601563 17.402343 21.597656 25.5 27.898437 65.699219 15.898437 97.796876-9.300781 24-32.699218 54.902343-92.101562 63.601562l-23.097656 3.601562c14.160156 21.367188 15.652344 23.929688 18.601562 27.296876 5.996094 8.101562 10.496094 14.101562 10.496094 30.902343zm30-8.699219v-61.5c0-17.101562-3.601562-28.5-8.402344-36.902343 45.601563-12.296876 78.003906-39.300782 92.402344-78 15.300781-40.796876 8.402344-89.398438-17.101562-123 4.503906-20.097657 4.503906-52.199219-6.296876-67.199219-4.800781-6.597657-11.402343-10.199219-19.800781-10.199219-.300781 0-.300781 0-.300781 0-23.261719 1.257812-41.570312 12.972656-61.199219 24.898438-18-4.800782-36.300781-7.199219-54.601562-7.199219-18.597657 0-37.199219 2.699219-53.695313 7.199219-20.664062-12.460938-38.796875-23.671876-62.703125-24.898438-7.5 0-14.101562 3.601562-18.902343 10.199219-10.796876 15-10.796876 47.101562-6.296876 67.199219-25.503906 33.601562-32.402343 82.5-17.101562 123 14.398438 38.699218 46.800781 65.703124 92.402344 78-3.722656 6.511718-6.667969 14.914062-7.828125 26.285156-9.210938 3.175781-17.199219 4.210937-24.628907 2.027344-7.835937-2.316407-13.941406-7.546876-19.246093-16.46875-11.914063-20.015626-32.207031-36.355469-55.3125-34.230469l2.636719 29.882812c10.699218-.980469 21.347656 10.339844 26.878906 19.671875 9.125 15.367188 21.417968 25.445313 36.546875 29.914063 11.230469 3.308593 21.496093 3.230469 32.550781.871093v40.449219c-87.300781-30.601562-151-114-151-211.800781 0-124.199219 101.800781-227 226-227s226 102.800781 226 227c0 97.800781-63.699219 181.199219-151 211.800781zm0 0"/></svg>

<svg width="512" height="512" viewBox="0 0 512 512" fill="none" xmlns="http://www.w3.org/2000/svg">
<path d="M256 0C115.301 0 0 116.301 0 257C0 396.883 114.25 512 256 512C397.574 512 512 397.055 512 257C512 116.301 396.699 0 256 0ZM301 477.5C286.602 480.5 271.301 482 256 482C240.699 482 225.398 480.5 211 477.5V407.301C211 390.5 215.5 384.5 221.5 376.398C224.555 372.906 226.398 369.773 240.098 349.102L217 345.5C157.598 336.801 134.199 305.898 124.898 281.898C112.898 249.801 119.199 209.598 140.801 184.102C144.102 180.199 146.801 173.598 144.402 166.699C139.898 152.898 140.5 131 143.5 122.598C159.406 124.871 175.762 136.266 189.402 144.5C195.688 148.168 198.984 147.199 202 147.5C212.961 145.219 230.059 139.699 256.301 139.699C272.5 139.699 289.602 142.098 306.402 146.898C309.406 146.828 314.234 149.383 322.602 144.5C336.859 135.812 352.66 124.809 368.5 122.598C371.5 131 372.102 152.898 367.602 166.699C365.199 173.598 367.898 180.199 371.203 184.102C392.801 209.602 399.102 249.801 387.102 281.898C377.801 305.898 354.402 336.801 295 345.5L271.902 349.102C286.062 370.469 287.555 373.031 290.504 376.398C296.5 384.5 301 390.5 301 407.301V477.5ZM331 468.801V407.301C331 390.199 327.398 378.801 322.598 370.398C368.199 358.102 400.602 331.098 415 292.398C430.301 251.602 423.402 203 397.898 169.398C402.402 149.301 402.402 117.199 391.602 102.199C386.801 95.6016 380.199 92 371.801 92C371.5 92 371.5 92 371.5 92C348.238 93.2578 329.93 104.973 310.301 116.898C292.301 112.098 274 109.699 255.699 109.699C237.102 109.699 218.5 112.398 202.004 116.898C181.34 104.438 163.207 93.2266 139.301 92C131.801 92 125.199 95.6016 120.398 102.199C109.602 117.199 109.602 149.301 114.102 169.398C88.5977 203 81.6992 251.898 97 292.398C111.398 331.098 143.801 358.102 189.402 370.398C185.68 376.91 182.734 385.312 181.574 396.684C172.363 399.859 164.375 400.895 156.945 398.711C149.109 396.395 143.004 391.164 137.699 382.242C125.785 362.227 105.492 345.887 82.3867 348.012L85.0234 377.895C95.7227 376.914 106.371 388.234 111.902 397.566C121.027 412.934 133.32 423.012 148.449 427.48C159.68 430.789 169.945 430.711 181 428.352V468.801C93.6992 438.199 30 354.801 30 257C30 132.801 131.801 30 256 30C380.199 30 482 132.801 482 257C482 354.801 418.301 438.199 331 468.801Z" fill="#31344B"/>
</svg>
